tools/download-figma-icons/icons/solid/high5.svg

<svg width="24" height="24" viewBox="0 0 24 24" fill="none" xmlns="http://www.w3.org/2000/svg">
<path fill-rule="evenodd" clip-rule="evenodd" d="M8.58688 3.08398C8.68887 3.40122 8.98287 3.60297 9.30011 3.60297C9.37661 3.60297 9.45386 3.59172 9.5311 3.56697C9.92484 3.44022 10.1408 3.01723 10.0133 2.62274L9.33461 0.519044C9.20861 0.126054 8.78862 -0.0906903 8.39038 0.0368064C7.99664 0.162803 7.78065 0.585792 7.90814 0.980282L8.58688 3.08398ZM23.8516 13.2497C23.5328 12.6714 22.9239 12.4712 22.2706 12.6954L20.4639 13.3247L22.4551 8.0958C22.5729 7.78906 22.5534 7.46207 22.4311 7.18308C22.3051 6.90408 22.0771 6.67534 21.7711 6.56134C21.1569 6.32585 20.4677 6.63259 20.2322 7.24608L20.9484 5.36962C21.0662 5.06288 21.0467 4.73589 20.9207 4.46065C20.7992 4.1854 20.5704 3.95291 20.2599 3.83516C19.6494 3.60342 18.961 3.91016 18.7255 4.52365L18.2612 5.75136C18.3752 5.44012 18.3557 5.11763 18.2335 4.83789C18.112 4.55889 17.8795 4.33015 17.5727 4.2124C16.9593 3.98066 16.2708 4.2874 16.0383 4.90089L15.2508 6.96708C15.475 6.37235 15.1803 5.71161 14.5863 5.48737L14.5113 5.45587C13.9173 5.23238 13.2521 5.52712 13.0279 6.1211L11.6396 9.77201L10.9662 7.77331C10.7659 7.17183 10.1134 6.85309 9.5112 7.05333L9.4317 7.08033C8.83472 7.28582 8.51148 7.93081 8.71172 8.53304L8.00824 6.43985C7.79974 5.81811 7.12251 5.48362 6.50078 5.69212C6.19029 5.79786 5.95029 6.01836 5.8168 6.29435C5.68255 6.56584 5.65105 6.88833 5.7538 7.19883L5.33681 5.95536C5.12381 5.33362 4.44733 4.99988 3.8301 5.21213C3.5151 5.31412 3.27886 5.53912 3.14536 5.80986C3.00737 6.08136 2.97587 6.40385 3.08236 6.71884L3.72123 8.616C3.51001 7.99508 2.83554 7.66835 2.21689 7.87531C1.90564 7.98256 1.66565 8.19855 1.53215 8.47379C1.39866 8.74529 1.36341 9.07228 1.46916 9.38277L3.52635 15.4846L1.8044 14.2966C1.24416 13.9577 0.51368 14.1391 0.170939 14.7024C-0.0180564 15.0129 -0.0450557 15.3789 0.0644415 15.6976C0.12369 15.8784 0.230187 16.0471 0.374934 16.1806L4.60108 19.773C6.00504 20.9182 7.89049 21.351 9.6687 20.7487C10.9114 20.328 11.8916 19.4745 12.5134 18.396C12.9019 18.7028 13.3429 18.951 13.8273 19.1363C15.5778 19.8045 17.4782 19.4468 18.9265 18.357L23.5921 14.7211C23.7451 14.5914 23.8553 14.4264 23.9228 14.2449C24.0406 13.9307 24.0286 13.5647 23.8516 13.2497ZM14.3683 20.4306C14.7665 20.3039 15.185 20.5214 15.3125 20.9136L15.992 23.0173C16.1195 23.411 15.9035 23.8348 15.5097 23.9608C15.4325 23.9863 15.3552 23.9975 15.2787 23.9975C14.9615 23.9975 14.6682 23.7958 14.5655 23.4785L13.886 21.3748C13.7585 20.9811 13.9745 20.5574 14.3683 20.4306ZM5.18188 3.59299L6.1576 4.21548C6.28285 4.29573 6.42235 4.33322 6.56034 4.33322C6.80784 4.33322 7.05008 4.21098 7.19333 3.98673C7.41607 3.63799 7.31407 3.17375 6.96458 2.95176L5.98886 2.32853C5.63937 2.10653 5.17588 2.20853 4.95313 2.55727C4.73039 2.90676 4.83239 3.37025 5.18188 3.59299ZM18.012 20.4141L18.9884 21.0373C19.3379 21.2601 19.4399 21.7236 19.2172 22.0731C19.0739 22.2973 18.8317 22.4196 18.5842 22.4196C18.4454 22.4196 18.3067 22.3813 18.1814 22.3018L17.205 21.6778C16.8555 21.4558 16.7542 20.9916 16.9762 20.6428C17.199 20.2926 17.6625 20.1906 18.012 20.4141ZM11.8101 2.53689C11.8964 2.56914 11.9856 2.58414 12.0733 2.58414C12.3771 2.58414 12.6628 2.39814 12.7753 2.0974L13.1811 1.01293C13.3258 0.624436 13.1293 0.192447 12.7416 0.0477006C12.3546 -0.0962957 11.9211 0.0994493 11.7764 0.487189L11.3706 1.57166C11.2259 1.9594 11.4224 2.39214 11.8101 2.53689ZM11.214 21.9002C11.3588 21.5124 11.7923 21.3159 12.1793 21.4607C12.567 21.6054 12.7635 22.0382 12.6188 22.4259L12.213 23.5104C12.1005 23.8119 11.8148 23.9979 11.5103 23.9979C11.4233 23.9979 11.334 23.9821 11.2478 23.9499C10.8601 23.8051 10.6636 23.3731 10.8083 22.9847L11.214 21.9002Z" fill="black"/>
</svg>

<svg xmlns="http://www.w3.org/2000/svg" width="24" height="24" fill="none" viewBox="0 0 24 24"><path fill="currentColor" fill-rule="evenodd" d="M8.587 3.084a.749.749 0 1 0 1.426-.461L9.335.519A.75.75 0 0 0 8.39.037a.75.75 0 0 0-.482.943zM23.852 13.25c-.32-.579-.928-.779-1.581-.555l-1.807.63 1.991-5.23a1.2 1.2 0 0 0-.024-.912 1.192 1.192 0 0 0-2.199.063l.716-1.876a1.17 1.17 0 0 0-.027-.91 1.18 1.18 0 0 0-.661-.625 1.193 1.193 0 0 0-1.535.689l-.464 1.227a1.22 1.22 0 0 0-.027-.913 1.17 1.17 0 0 0-.661-.626 1.19 1.19 0 0 0-1.535.689l-.787 2.066a1.145 1.145 0 0 0-.665-1.48l-.075-.031a1.15 1.15 0 0 0-1.483.665L11.64 9.772l-.674-1.999c-.2-.601-.853-.92-1.455-.72l-.08.027c-.596.206-.92.85-.72 1.453L8.009 6.44a1.19 1.19 0 0 0-1.507-.748 1.18 1.18 0 0 0-.684.602 1.2 1.2 0 0 0-.063.905l-.417-1.244a1.19 1.19 0 0 0-1.507-.743 1.16 1.16 0 0 0-.685.598c-.138.271-.17.594-.063.909l.64 1.897a1.189 1.189 0 0 0-2.253.767l2.057 6.102-1.722-1.188a1.19 1.19 0 0 0-1.633.405c-.19.31-.216.677-.107.996.06.18.166.35.31.483l4.227 3.592c1.404 1.145 3.29 1.578 5.068.976a5.2 5.2 0 0 0 2.844-2.353c.389.307.83.555 1.314.74 1.75.669 3.651.31 5.1-.779l4.665-3.636a1.14 1.14 0 0 0 .33-.476c.119-.314.107-.68-.07-.995m-9.484 7.18a.75.75 0 0 1 .944.484l.68 2.103a.749.749 0 1 1-1.427.462l-.679-2.104a.75.75 0 0 1 .482-.944M5.182 3.594l.976.622a.75.75 0 1 0 .807-1.264l-.976-.622a.751.751 0 0 0-.807 1.264m12.83 16.821.976.623a.75.75 0 1 1-.807 1.265l-.976-.624a.75.75 0 1 1 .807-1.264M11.81 2.537a.75.75 0 0 0 .965-.44l.406-1.084a.75.75 0 0 0-1.405-.526l-.405 1.085a.75.75 0 0 0 .44.965M11.214 21.9a.75.75 0 0 1 1.405.526l-.406 1.084a.75.75 0 1 1-1.405-.525z" clip-rule="evenodd"/></svg>
